X:1178
T:French Marine's March.
M:C
L:1/8
Q:1/2=72
N:parallel fifths in bar 6
I: :: :|
Z:Jack Campin * www.campin.me.uk * 2009
K:D
[V:1] d>d|a3  g f3   e|d2 d>d d2A2 |d3   f e3  g|fg`af  e3f|
[V:2] A>A|f3  e d2 A>G|F2 F>F F2A2 |F2 d>d c2e>e|de`fd  c3d|
%
[V:1]     g2e>g f2 d>f|e>de>f defg |ag`fg  f2 e2|d2 d>d d2:|
[V:2]     e2c>e d2 F2 |A>GB>A FAde |f>ed>e d2 A2|F2 F>F F2:|
%
[V:1] A>A|e3  f e>fd>e|f2 f>f f2d>e|f2 e>d a2g>f|e2 e>e e2
[V:2] A>A|c3  d c>dF>A|d2 d>d d2F>A|d2 d2  f2e>d|c2 c>c c2
%
[V:1] f>g|a2f>a g2 e>g|f>da>f e2f>g|a>gf>g f2Te2|d2 d>d d2:|
[V:2] d>e|f2d>f e2 c>e|d2 f>d A2d>e|f>ed>e d2 A2|F>DF>A F2:|
<end>
<start>
